images/zhuyin/19.svg

<svg width="50" height="50" viewBox="0 0 50 50" fill="none" xmlns="http://www.w3.org/2000/svg">
<path d="M30.3438 15.2188C30.75 15.2188 31.2812 15.4844 31.9375 16.0156C32.6875 16.6406 33.0625 17.0703 33.0625 17.3047C33.0625 17.3516 32.9531 17.5156 32.7344 17.7969C32.3906 18.2344 32.0547 19.3828 31.7266 21.2422C31.2734 23.6172 30.6328 25.3281 29.8047 26.375C29.3359 26.9375 28.8594 27.2188 28.375 27.2188C28.0781 27.2188 27.5859 26.9297 26.8984 26.3516C26.2578 25.7734 25.9375 25.4062 25.9375 25.25C25.9375 25.1875 25.9688 25.1562 26.0312 25.1562C26.1406 25.1562 26.3672 25.2031 26.7109 25.2969C27.0703 25.4062 27.4062 25.4609 27.7188 25.4609C28.25 25.4609 28.6641 25.2812 28.9609 24.9219C29.1641 24.6875 29.4297 23.8125 29.7578 22.2969C30.2109 20.375 30.4375 18.9219 30.4375 17.9375C30.4375 17.375 30.1875 17.0938 29.6875 17.0938C29.25 17.0938 27.4062 17.375 24.1562 17.9375L23.4062 18.1016V24.6406C23.4062 27.6562 23.4453 29.4922 23.5234 30.1484C23.5703 30.8828 23.5938 31.4375 23.5938 31.8125C23.5938 32.4844 23.4922 33.0859 23.2891 33.6172C23.1016 34.1172 22.9219 34.3672 22.75 34.3672C22.4844 34.3672 22.1875 34.1016 21.8594 33.5703C21.5156 33.0078 21.3438 32.5469 21.3438 32.1875C21.3438 31.9844 21.375 31.75 21.4375 31.4844C21.5312 31.0625 21.6094 30.6172 21.6719 30.1484C21.8281 28.4922 21.9062 26.5859 21.9062 24.4297C21.9062 22.5078 21.8594 20.5156 21.7656 18.4531L20.8281 18.6172C19.9531 18.8516 19.4062 18.9688 19.1875 18.9688C18.7812 18.9688 18.2656 18.7812 17.6406 18.4062C17.0469 18.0312 16.75 17.7266 16.75 17.4922C16.75 17.3672 16.875 17.3047 17.125 17.3047C17.75 17.4297 18.3125 17.4922 18.8125 17.4922C19.6875 17.4922 21.5 17.2344 24.25 16.7188C26.875 16.2188 28.5938 15.8438 29.4062 15.5938C29.8438 15.3438 30.1562 15.2188 30.3438 15.2188Z" fill="#333333"/>
<path d="M31.9375 16.0156L32.2576 15.6315L32.2521 15.627L31.9375 16.0156ZM32.7344 17.7969L33.1275 18.1058L33.1291 18.1038L32.7344 17.7969ZM31.7266 21.2422L32.2178 21.3359L32.219 21.3291L31.7266 21.2422ZM29.8047 26.375L30.1889 26.6952L30.1968 26.6852L29.8047 26.375ZM26.8984 26.3516L26.5635 26.7228L26.5699 26.7286L26.5766 26.7342L26.8984 26.3516ZM26.7109 25.2969L26.8565 24.8185L26.8495 24.8164L26.8425 24.8145L26.7109 25.2969ZM28.9609 24.9219L28.583 24.5943L28.5755 24.6034L28.9609 24.9219ZM29.7578 22.2969L29.2711 22.1821L29.2691 22.1911L29.7578 22.2969ZM24.1562 17.9375L24.071 17.4448L24.0601 17.4467L24.0494 17.449L24.1562 17.9375ZM23.4062 18.1016L23.2994 17.6131L22.9062 17.6991V18.1016H23.4062ZM23.5234 30.1484L24.0224 30.1166L24.0216 30.1029L24.0199 30.0893L23.5234 30.1484ZM23.2891 33.6172L22.822 33.4386L22.8209 33.4416L23.2891 33.6172ZM21.8594 33.5703L21.4327 33.831L21.434 33.8331L21.8594 33.5703ZM21.4375 31.4844L21.9242 31.5989L21.9256 31.5928L21.4375 31.4844ZM21.6719 30.1484L22.1675 30.2145L22.1688 30.205L22.1697 30.1954L21.6719 30.1484ZM21.7656 18.4531L22.2651 18.4304L22.2393 17.8626L21.6794 17.9606L21.7656 18.4531ZM20.8281 18.6172L20.7419 18.1247L20.7201 18.1285L20.6988 18.1342L20.8281 18.6172ZM17.6406 18.4062L17.3736 18.8291L17.3834 18.835L17.6406 18.4062ZM17.125 17.3047L17.2231 16.8144L17.1745 16.8047H17.125V17.3047ZM24.25 16.7188L24.3421 17.2102L24.3436 17.2099L24.25 16.7188ZM29.4062 15.5938L29.5533 16.0716L29.6062 16.0554L29.6543 16.0279L29.4062 15.5938ZM30.3438 15.7188C30.5636 15.7188 30.9762 15.8807 31.6229 16.4042L32.2521 15.627C31.5863 15.088 30.9364 14.7188 30.3438 14.7188V15.7188ZM31.6174 16.3997C31.9842 16.7054 32.2424 16.9496 32.4045 17.1354C32.4858 17.2285 32.5326 17.2953 32.5568 17.3381C32.5851 17.3882 32.5625 17.3703 32.5625 17.3047H33.5625C33.5625 17.1219 33.4931 16.9624 33.4276 16.8464C33.358 16.7232 33.2642 16.5996 33.158 16.4779C32.9451 16.234 32.6408 15.9508 32.2576 15.6315L31.6174 16.3997ZM32.5625 17.3047C32.5625 17.2611 32.5686 17.2268 32.5731 17.2064C32.5779 17.1849 32.5833 17.1686 32.5868 17.1588C32.5904 17.1487 32.5936 17.1414 32.5953 17.1376C32.5962 17.1356 32.5969 17.1341 32.5974 17.1331C32.5978 17.1322 32.5981 17.1317 32.5981 17.1317C32.5981 17.1316 32.5975 17.1329 32.5959 17.1357C32.5944 17.1384 32.5922 17.1421 32.5893 17.1469C32.5833 17.1566 32.5752 17.1694 32.5644 17.1855C32.5198 17.2524 32.4465 17.3526 32.3397 17.4899L33.1291 18.1038C33.241 17.9599 33.3317 17.8374 33.3965 17.7402C33.4283 17.6925 33.4601 17.6416 33.4859 17.592C33.4987 17.5672 33.5144 17.5344 33.528 17.4967C33.5388 17.4664 33.5625 17.3953 33.5625 17.3047H32.5625ZM32.3412 17.488C32.1058 17.7875 31.9147 18.2647 31.7447 18.846C31.5696 19.4448 31.3998 20.2166 31.2342 21.1553L32.219 21.3291C32.3814 20.4084 32.5437 19.6763 32.7045 19.1267C32.8704 18.5595 33.0192 18.2437 33.1275 18.1058L32.3412 17.488ZM31.2354 21.1485C30.787 23.4988 30.165 25.1136 29.4125 26.0648L30.1968 26.6852C31.1006 25.5427 31.7599 23.7355 32.2177 21.3359L31.2354 21.1485ZM29.4206 26.0549C28.9975 26.5626 28.6482 26.7188 28.375 26.7188V27.7188C29.0706 27.7188 29.6744 27.3124 30.1888 26.6951L29.4206 26.0549ZM28.375 26.7188C28.3783 26.7188 28.3523 26.7187 28.2877 26.6951C28.2252 26.6722 28.1421 26.6329 28.0364 26.5708C27.8241 26.4461 27.5532 26.2489 27.2202 25.9689L26.5766 26.7342C26.9312 27.0324 27.2501 27.2687 27.53 27.4331C27.7939 27.5881 28.0878 27.7188 28.375 27.7188V26.7188ZM27.2334 25.9804C26.9185 25.6962 26.6953 25.4753 26.5545 25.3139C26.4835 25.2325 26.4435 25.1776 26.424 25.1458C26.3938 25.0963 26.4375 25.144 26.4375 25.25H25.4375C25.4375 25.4341 25.5213 25.5864 25.5711 25.6677C25.6317 25.7668 25.7118 25.8691 25.801 25.9713C25.9805 26.177 26.2378 26.4288 26.5635 26.7228L27.2334 25.9804ZM26.4375 25.25C26.4375 25.2958 26.4257 25.422 26.3145 25.5332C26.2033 25.6445 26.0771 25.6562 26.0312 25.6562V24.6562C25.9229 24.6562 25.7498 24.6837 25.6074 24.8261C25.4649 24.9686 25.4375 25.1417 25.4375 25.25H26.4375ZM26.0312 25.6562C26.0265 25.6562 26.0361 25.656 26.0662 25.6602C26.0943 25.6642 26.1324 25.6708 26.1819 25.681C26.2812 25.7016 26.4128 25.7338 26.5794 25.7793L26.8425 24.8145C26.6653 24.7662 26.5118 24.7281 26.3845 24.7018C26.2662 24.6773 26.1401 24.6562 26.0312 24.6562V25.6562ZM26.5654 25.7752C26.9627 25.8961 27.3481 25.9609 27.7188 25.9609V24.9609C27.4644 24.9609 27.1779 24.9164 26.8565 24.8185L26.5654 25.7752ZM27.7188 25.9609C28.3758 25.9609 28.9406 25.7316 29.3464 25.2403L28.5755 24.6034C28.3875 24.8309 28.1242 24.9609 27.7188 24.9609V25.9609ZM29.3388 25.2493C29.4428 25.1294 29.522 24.9711 29.5856 24.8206C29.6535 24.6598 29.7218 24.463 29.7909 24.2351C29.9295 23.7787 30.0812 23.166 30.2465 22.4027L29.2691 22.1911C29.1063 22.9434 28.9611 23.526 28.8341 23.9446C28.7704 24.1542 28.7137 24.3148 28.6644 24.4314C28.6108 24.5582 28.5807 24.5972 28.5831 24.5944L29.3388 25.2493ZM30.2445 22.4116C30.6995 20.4818 30.9375 18.9822 30.9375 17.9375H29.9375C29.9375 18.8615 29.7224 20.2682 29.2712 22.1821L30.2445 22.4116ZM30.9375 17.9375C30.9375 17.5927 30.8622 17.2408 30.6237 16.9725C30.3753 16.693 30.0308 16.5938 29.6875 16.5938V17.5938C29.8442 17.5938 29.8747 17.6351 29.8763 17.6369C29.8878 17.6499 29.9375 17.7198 29.9375 17.9375H30.9375ZM29.6875 16.5938C29.4218 16.5938 28.8073 16.6722 27.9012 16.8104C26.9744 16.9518 25.6972 17.1634 24.071 17.4448L24.2415 18.4302C25.8653 18.1491 27.135 17.9389 28.052 17.799C28.9895 17.6559 29.5157 17.5938 29.6875 17.5938V16.5938ZM24.0494 17.449L23.2994 17.6131L23.5131 18.59L24.2631 18.426L24.0494 17.449ZM22.9062 18.1016V24.6406H23.9062V18.1016H22.9062ZM22.9062 24.6406C22.9062 27.6425 22.9444 29.5146 23.0269 30.2075L24.0199 30.0893C23.9462 29.4698 23.9062 27.67 23.9062 24.6406H22.9062ZM23.0245 30.1803C23.0712 30.9121 23.0938 31.4539 23.0938 31.8125H24.0938C24.0938 31.4211 24.0695 30.8536 24.0224 30.1166L23.0245 30.1803ZM23.0938 31.8125C23.0938 32.4342 22.9998 32.9737 22.822 33.4386L23.7561 33.7958C23.9846 33.1982 24.0938 32.5346 24.0938 31.8125H23.0938ZM22.8209 33.4416C22.7331 33.6758 22.6596 33.8156 22.6077 33.8879C22.5823 33.9231 22.575 33.9239 22.5906 33.9128C22.6096 33.8994 22.6653 33.8672 22.75 33.8672V34.8672C23.0895 34.8672 23.3077 34.6274 23.4197 34.4715C23.5474 34.2938 23.6575 34.0586 23.7572 33.7927L22.8209 33.4416ZM22.75 33.8672C22.7891 33.8672 22.7628 33.886 22.6615 33.7953C22.5632 33.7073 22.4362 33.5527 22.2848 33.3076L21.434 33.8331C21.6107 34.1192 21.7962 34.363 21.9947 34.5406C22.1903 34.7156 22.4452 34.8672 22.75 34.8672V33.8672ZM22.286 33.3096C21.9561 32.7696 21.8438 32.4061 21.8438 32.1875H20.8438C20.8438 32.6876 21.0752 33.246 21.4327 33.831L22.286 33.3096ZM21.8438 32.1875C21.8438 32.0335 21.8677 31.8389 21.9242 31.5989L20.9508 31.3699C20.8823 31.6611 20.8438 31.9352 20.8438 32.1875H21.8438ZM21.9256 31.5928C22.0227 31.1557 22.1033 30.6962 22.1675 30.2145L21.1763 30.0824C21.1155 30.5382 21.0398 30.9693 20.9494 31.3759L21.9256 31.5928ZM22.1697 30.1954C22.3277 28.5198 22.4062 26.5973 22.4062 24.4297H21.4062C21.4062 26.5746 21.3285 28.4646 21.1741 30.1015L22.1697 30.1954ZM22.4062 24.4297C22.4062 22.4997 22.3592 20.4999 22.2651 18.4304L21.2661 18.4758C21.3596 20.5313 21.4062 22.5159 21.4062 24.4297H22.4062ZM21.6794 17.9606L20.7419 18.1247L20.9143 19.1097L21.8518 18.9456L21.6794 17.9606ZM20.6988 18.1342C20.2651 18.2504 19.9187 18.3359 19.657 18.392C19.3809 18.4511 19.2374 18.4688 19.1875 18.4688V19.4688C19.3564 19.4688 19.5956 19.4278 19.8665 19.3698C20.1516 19.3087 20.5162 19.2184 20.9575 19.1002L20.6988 18.1342ZM19.1875 18.4688C18.9185 18.4688 18.4983 18.3378 17.8979 17.9775L17.3834 18.835C18.0329 19.2247 18.644 19.4688 19.1875 19.4688V18.4688ZM17.9076 17.9835C17.6254 17.8053 17.4399 17.6596 17.3308 17.5476C17.2061 17.4196 17.25 17.407 17.25 17.4922H16.25C16.25 17.8117 16.4423 18.0687 16.6145 18.2454C16.8023 18.4381 17.0621 18.6322 17.3736 18.829L17.9076 17.9835ZM17.25 17.4922C17.25 17.5484 17.2345 17.6199 17.1895 17.6875C17.1465 17.7519 17.0954 17.7847 17.0674 17.7988C17.0412 17.8118 17.029 17.812 17.0431 17.8096C17.0559 17.8075 17.082 17.8047 17.125 17.8047V16.8047C16.9745 16.8047 16.7871 16.8209 16.6201 16.9043C16.5296 16.9496 16.4316 17.0215 16.3574 17.1328C16.2811 17.2472 16.25 17.3734 16.25 17.4922H17.25ZM17.0269 17.795C17.6759 17.9248 18.272 17.9922 18.8125 17.9922V16.9922C18.353 16.9922 17.8241 16.9346 17.2231 16.8144L17.0269 17.795ZM18.8125 17.9922C19.7424 17.9922 21.6021 17.7239 24.3421 17.2102L24.1579 16.2273C21.3979 16.7448 19.6326 16.9922 18.8125 16.9922V17.9922ZM24.3436 17.2099C26.9631 16.711 28.7097 16.3312 29.5533 16.0716L29.2592 15.1159C28.4778 15.3563 26.7869 15.7265 24.1564 16.2276L24.3436 17.2099ZM29.6543 16.0279C29.8618 15.9093 30.0274 15.8276 30.1544 15.7767C30.291 15.7221 30.3455 15.7188 30.3438 15.7188V14.7188C30.1545 14.7188 29.959 14.7779 29.7831 14.8483C29.5976 14.9224 29.3882 15.0282 29.1582 15.1596L29.6543 16.0279Z" fill="#333333"/>
</svg>

<svg xmlns="http://www.w3.org/2000/svg" width="50" height="50" fill="none"><path fill="#333" d="M30.344 15.219c.406 0 .937.265 1.593.797.75.625 1.125 1.054 1.125 1.289 0 .047-.109.21-.328.492-.343.437-.68 1.586-1.007 3.445-.454 2.375-1.094 4.086-1.922 5.133-.47.563-.946.844-1.43.844-.297 0-.79-.29-1.477-.867-.64-.579-.96-.946-.96-1.102 0-.063.03-.094.093-.094.11 0 .336.047.68.14.36.11.695.165 1.008.165.531 0 .945-.18 1.242-.54.203-.233.469-1.108.797-2.624.453-1.922.68-3.375.68-4.36 0-.562-.25-.843-.75-.843-.438 0-2.282.281-5.532.843l-.75.165v6.539c0 3.015.04 4.851.117 5.507.047.735.07 1.29.07 1.665 0 .671-.1 1.273-.304 1.804-.187.5-.367.75-.539.75-.266 0-.563-.265-.89-.797-.344-.562-.516-1.023-.516-1.383 0-.203.031-.437.093-.703.094-.422.172-.867.235-1.336.156-1.656.234-3.562.234-5.718 0-1.922-.047-3.914-.14-5.977l-.938.164c-.875.235-1.422.352-1.64.352-.407 0-.922-.188-1.547-.563-.594-.375-.891-.68-.891-.914 0-.125.125-.187.375-.187a8.69 8.69 0 0 0 1.688.187c.875 0 2.687-.258 5.437-.773 2.625-.5 4.344-.875 5.156-1.125.438-.25.75-.375.938-.375Z"/><path fill="#333" d="m31.938 16.016.32-.384-.006-.005-.315.389Zm.796 1.78.393.31.002-.002-.395-.307Zm-1.007 3.446.49.094.002-.007-.492-.087Zm-1.922 5.133.384.32.008-.01-.392-.31Zm-2.907-.023-.334.37.006.007.007.005.321-.382Zm-.187-1.055.146-.479-.008-.002-.006-.002-.132.483Zm2.25-.375-.378-.328-.007.01.385.318Zm.797-2.625-.487-.115-.002.01.489.105Zm-5.602-4.36-.085-.492-.01.002-.012.002.107.488Zm-.75.165-.107-.489-.393.086v.403h.5Zm.117 12.046.5-.031-.001-.014-.002-.014-.497.06Zm-.234 3.47-.467-.18-.001.004.468.175Zm-1.43-.048-.426.261.001.002.425-.263Zm-.422-2.086.487.115.002-.006-.488-.109Zm.235-1.336.495.067.002-.01v-.01l-.497-.047Zm.094-11.695.5-.023-.027-.567-.56.098.087.492Zm-.938.164-.086-.492-.022.003-.021.006.13.483Zm-3.187-.21-.267.422.01.006.257-.429Zm-.516-1.102.098-.49-.049-.01h-.049v.5Zm7.125-.586.092.491h.002l-.094-.491Zm5.156-1.125.147.478.053-.017.048-.027-.248-.434Zm.938.125c.22 0 .632.162 1.279.685l.63-.777c-.667-.539-1.317-.908-1.91-.908v1Zm1.273.68c.367.306.625.55.787.736.082.093.129.16.153.203.028.05.005.032.005-.033h1a.942.942 0 0 0-.134-.459 2.287 2.287 0 0 0-.27-.368 8.168 8.168 0 0 0-.9-.847l-.64.769Zm.945.906a.456.456 0 0 1 .035-.172l.001-.001-.002.004a.394.394 0 0 1-.032.05 5.598 5.598 0 0 1-.224.304l.79.614c.111-.144.202-.267.267-.364.031-.047.063-.098.089-.148a.802.802 0 0 0 .042-.095.571.571 0 0 0 .035-.192h-1Zm-.22.183c-.236.3-.427.777-.597 1.358-.175.599-.345 1.37-.51 2.31l.984.173c.162-.92.325-1.653.486-2.202.165-.567.314-.883.422-1.021l-.786-.618Zm-1.107 3.66c-.448 2.35-1.07 3.966-1.822 4.917l.784.62c.904-1.142 1.563-2.95 2.02-5.35l-.982-.187Zm-1.814 4.907c-.424.508-.773.664-1.046.664v1c.696 0 1.3-.407 1.814-1.024l-.768-.64Zm-1.046.664c.003 0-.023 0-.087-.024a1.605 1.605 0 0 1-.252-.124 6.31 6.31 0 0 1-.816-.602l-.643.765c.354.298.673.535.953.7.264.154.558.285.845.285v-1Zm-1.142-.739a8.552 8.552 0 0 1-.678-.666 1.381 1.381 0 0 1-.131-.168c-.03-.05.014-.002.014.104h-1c0 .184.083.336.133.418.06.099.14.201.23.303.18.206.437.458.763.752l.67-.743Zm-.796-.73a.408.408 0 0 1-.123.283.407.407 0 0 1-.283.123v-1a.594.594 0 0 0-.424.17.594.594 0 0 0-.17.424h1Zm-.406.406.035.004c.028.004.066.01.116.021.1.02.23.053.397.098l.264-.965a7.8 7.8 0 0 0-.459-.112 1.835 1.835 0 0 0-.353-.046v1Zm.534.12c.398.12.783.185 1.154.185v-1c-.255 0-.541-.045-.863-.142l-.29.956Zm1.154.185c.657 0 1.222-.23 1.627-.72l-.77-.638c-.189.228-.452.358-.857.358v1Zm1.62-.712c.104-.12.183-.278.247-.428.068-.161.136-.358.205-.586.139-.456.29-1.069.456-1.832l-.978-.212a23.414 23.414 0 0 1-.435 1.754c-.064.21-.12.37-.17.486-.053.127-.083.166-.08.163l.755.655Zm.905-2.837c.456-1.93.694-3.43.694-4.474h-1c0 .924-.216 2.33-.667 4.244l.973.23Zm.694-4.474c0-.345-.076-.697-.314-.965-.249-.28-.593-.38-.936-.38v1c.156 0 .187.042.188.044.012.013.061.083.061.3h1Zm-1.25-1.344c-.266 0-.88.078-1.787.216-.927.142-2.204.353-3.83.635l.17.985a204.89 204.89 0 0 1 3.811-.631c.938-.143 1.464-.205 1.636-.205v-1Zm-5.639.855-.75.164.214.977.75-.164-.214-.977Zm-1.143.653v6.539h1V18.1h-1Zm0 6.539c0 3.002.038 4.874.12 5.567l.994-.119c-.074-.62-.114-2.419-.114-5.448h-1Zm.119 5.54c.046.731.069 1.273.069 1.631h1c0-.39-.024-.958-.072-1.695l-.997.063Zm.069 1.631c0 .622-.094 1.162-.272 1.627l.934.357c.229-.598.338-1.261.338-1.983h-1Zm-.273 1.63a2.058 2.058 0 0 1-.213.446c-.026.035-.033.036-.017.025a.281.281 0 0 1 .159-.046v1c.34 0 .558-.24.67-.395.127-.178.237-.413.337-.68l-.936-.35Zm-.071.425c.04 0 .013.019-.088-.072a2.27 2.27 0 0 1-.377-.487l-.851.525c.177.286.362.53.56.708.196.175.451.326.756.326v-1Zm-.464-.557c-.33-.54-.442-.904-.442-1.123h-1c0 .5.231 1.059.589 1.644l.853-.521Zm-.442-1.123c0-.154.024-.348.08-.588l-.973-.23a3.61 3.61 0 0 0-.107.819h1Zm.082-.594c.097-.437.177-.897.242-1.378l-.992-.133c-.06.456-.136.887-.227 1.294l.977.217Zm.244-1.398c.158-1.675.236-3.598.236-5.765h-1c0 2.145-.078 4.035-.232 5.672l.996.093Zm.236-5.765c0-1.93-.047-3.93-.14-6l-1 .046c.094 2.055.14 4.04.14 5.954h1Zm-.727-6.47-.937.165.172.985.938-.164-.173-.985Zm-.98.174c-.434.116-.78.202-1.042.258-.276.06-.42.077-.47.077v1c.17 0 .409-.041.68-.1.285-.06.65-.15 1.09-.269l-.258-.966Zm-1.512.335c-.268 0-.689-.131-1.29-.492l-.514.858c.65.39 1.261.634 1.805.634v-1Zm-1.28-.486a3.275 3.275 0 0 1-.576-.435c-.125-.128-.081-.141-.081-.056h-1c0 .32.192.577.364.753.188.193.448.387.76.584l.534-.846Zm-.657-.49a.357.357 0 0 1-.183.306c-.026.013-.038.013-.024.01a.533.533 0 0 1 .082-.004v-1c-.15 0-.338.016-.505.1a.644.644 0 0 0-.37.588h1Zm-.223.302c.649.13 1.245.197 1.785.197v-1c-.459 0-.988-.057-1.589-.178l-.196.981Zm1.785.197c.93 0 2.79-.268 5.53-.782l-.184-.983c-2.76.518-4.525.765-5.346.765v1Zm5.532-.782c2.62-.499 4.366-.879 5.21-1.138l-.295-.956c-.781.24-2.472.61-5.103 1.112l.188.982Zm5.31-1.182c.208-.119.373-.2.5-.251.137-.055.192-.058.19-.058v-1c-.19 0-.385.059-.56.13-.186.073-.396.18-.626.31l.496.869Z"/></svg>
